!!!!SEGMENT: pl-wumfc--n68232--001-028_moniuszko-stanislaw--paria-wyciag-fortepianowy-akt-iii-scena-iv.krn
!!!cenid: 18xx:4158
!!!COM: Moniuszko, Stanisław
!!!COM-rismID: pe30008351
!!!CDT: 1819/05/05-1872/06/04
!!!CNT: Polish
!!!GTL: Paria – wyciąg fortepianowy
!!!OTL: Akt III. Scena IV
!!!OMV: 028
!!!PDT:
!!!AGN:
!!!YEC: Copyright 2022 Narodowy Instytut Fryderyka Chopina (https://polishscores.org)
!!!YEM: License CC-BY-4.0 (https://creativecommons.org/licenses/by/4.0)
!!!SMS-siglum: PL-Wumfc
!!!SMS-shelfmark: N68232
!!!SMS-variant:
!!!SMS-altvar:
!!!SMS-shelfwork: 001-028 G
!!!NIFC-rismSourceID: 1001171381
!!!NIFC-rismChildID: 1001171381
!!!NIFC-islandoraID: pl-wumfc:7210
!!!URL-pdf-islandora: https://repozytorium.nifc.pl/islandora/object/pl-wumfc%3A7210/datastream/PDF/view
!!!URL-scan: https://polish.musicsources.pl/pl/lokalizacje/galeria/druki-muzyczne/12634/1 @EN{Scan on Polish Music Sources Website} @PL{Skany w portalu Dziedzictwo Muzyki Polskiej w otwartym dostępie}
!!!IIIF:
!!!ONB-nifc: UWAGA: str. 111-113. Uwaga: proszę w pliku umieszczać obsadę, która występuje tylko w danej części.
!!!AIN: 1 alto 3 bass 1 piano 1 soprn 3 tenor
!!!key: A
**kern	**kern	**dynam	**kern	**dynam	**kern	**text	**text	**dynam	**kern	**text	**text	**dynam	**kern	**text	**text	**dynam	**kern	**dynam	**kern	**text	**text	**dynam	**kern	**text	**text	**dynam	**kern	**text	**text	**dynam
*part9	*part9	*	*part8	*	*part7	*	*	*	*part6	*	*	*	*part5	*	*	*	*part4	*	*part3	*	*	*	*part2	*	*	*	*part1	*	*	*
*staff10	*staff9	*	*staff8	*	*staff7	*	*	*	*staff6	*	*	*	*staff5	*	*	*	*staff4	*	*staff3	*	*	*	*staff2	*	*	*	*staff1	*	*	*
*I"Piano.	*I"Piano.	*	*I"RYCERZE.\nGUERRIERI.	*	*I"RYCERZE.\nGUERRIERI.	*	*	*	*I"BRAMINI I LUD.\nBRAMINI E POPOLO.	*	*	*	*I"BRAMINI I LUD.\nBRAMINI E POPOLO.	*	*	*	*I"KOBIETY.\nDONNE.	*	*I"KOBIETY.\nDONNE.	*	*	*	*I"Akebar.	*	*	*	*I"Ratef.	*	*	*
*	*I'	*	*I'	*	*I'	*	*	*	*I'	*	*	*	*I'	*	*	*	*I'	*	*I'	*	*	*	*I'A.	*	*	*	*I'R.	*	*	*
*Ipiano	*Ipiano	*	*Ibass	*	*Itenor	*	*	*	*Ibass	*	*	*	*Itenor	*	*	*	*Ialto	*	*Isoprn	*	*	*	*Ibass	*	*	*	*Itenor	*	*	*
*ICklav	*ICklav	*	*ICvox	*	*ICvox	*	*	*	*ICvox	*	*	*	*ICvox	*	*	*	*ICvox	*	*ICvox	*	*	*	*ICvox	*	*	*	*ICvox	*	*	*
*IGacmp	*IGacmp	*	*IGcoro	*	*IGcoro	*	*	*	*IGcoro	*	*	*	*IGcoro	*	*	*	*IGcoro	*	*IGcoro	*	*	*	*IGsolo	*	*	*	*IGsolo	*	*	*
*clefF4	*clefG2	*	*clefF4	*	*clefG2	*	*	*	*clefF4	*	*	*	*clefG2	*	*	*	*clefG2	*	*clefG2	*	*	*	*clefF4	*	*	*	*clefG2	*	*	*
*	*	*	*	*	*ITrd8c12	*	*	*	*	*	*	*	*ITrd8c12	*	*	*	*	*	*	*	*	*	*	*	*	*	*ITrd8c12	*	*	*
*	*	*	*scale:85%	*	*scale:85%	*	*	*	*scale:85%	*	*	*	*scale:85%	*	*	*	*scale:85%	*	*scale:85%	*	*	*	*	*	*	*	*	*	*	*
*k[f#c#g#]	*k[f#c#g#]	*	*k[f#c#g#]	*	*k[f#c#g#]	*	*	*	*k[f#c#g#]	*	*	*	*k[f#c#g#]	*	*	*	*k[f#c#g#]	*	*k[f#c#g#]	*	*	*	*k[f#c#g#]	*	*	*	*k[f#c#g#]	*	*	*
*A:	*A:	*	*A:	*	*A:	*	*	*	*A:	*	*	*	*A:	*	*	*	*A:	*	*A:	*	*	*	*A:	*	*	*	*A:	*	*	*
*M2/2	*M2/2	*	*M2/2	*	*M2/2	*	*	*	*M2/2	*	*	*	*M2/2	*	*	*	*M2/2	*	*M2/2	*	*	*	*M2/2	*	*	*	*M2/2	*	*	*
*met()	*met()	*	*met()	*	*met()	*	*	*	*met()	*	*	*	*met()	*	*	*	*met()	*	*met()	*	*	*	*met()	*	*	*	*met()	*	*	*
=1	=1	=1	=1	=1	=1	=1	=1	=1	=1	=1	=1	=1	=1	=1	=1	=1	=1	=1	=1	=1	=1	=1	=1	=1	=1	=1	=1	=1	=1	=1
!	!	!	!	!	!	!	!	!	!	!	!	!	!	!	!	!	!	!	!LO:TX:a:t=Sopr.	!	!	!	!	!	!	!	!	!	!	!
!	!	!	!	!	!LO:TX:t=P:problem=klucz bez przenośnika oktawowego	!	!	!	!	!	!	!	!LO:TX:t=P:problem=klucz bez przenośnika oktawowego	!	!	!	!	!	!LO:TX:b:t=(wchodzą)	!	!	!	!	!	!	!	!LO:TX:t=P:problem=klucz bez przenośnika oktawowego	!	!	!
!	!	!	!LO:TX:a:t=B.	!	!LO:TX:a:t=T.	!	!	!	!LO:TX:a:t=B.	!	!	!	!LO:TX:a:t=T.	!	!	!	!LO:TX:a:t=Alt.	!	!LO:TX:b:i:t=(entrando)	!	!	!	!	!	!	!	!	!	!	!
16ELL 16C#\	8ee'\L	.	1r	.	1r	.	.	.	8A 8C#\	.	.	.	8c#\	kres!	guò.	.	2r	.	2r	.	.	.	2r	.	.	.	1r	.	.	.
16A\	.	.	.	.	.	.	.	.	.	.	.	.	.	.	.	.	.	.	.	.	.	.	.	.	.	.	.	.	.	.
16E 16C#\	8cc#'\	.	.	.	.	.	.	.	8r	.	.	.	8r	.	.	.	.	.	.	.	.	.	.	.	.	.	.	.	.	.
16A\JJ	.	.	.	.	.	.	.	.	.	.	.	.	.	.	.	.	.	.	.	.	.	.	.	.	.	.	.	.	.	.
8E 8C#\	8ee'\	.	.	.	.	.	.	.	4r	.	.	.	4r	.	.	.	.	.	.	.	.	.	.	.	.	.	.	.	.	.
8r	8aa'\J	.	.	.	.	.	.	.	.	.	.	.	.	.	.	.	.	.	.	.	.	.	.	.	.	.	.	.	.	.
16ELL 16C#\	4ccc#'\	.	.	.	.	.	.	.	2r	.	.	.	2r	.	.	.	4r	.	4r	.	.	.	2E\	Los	Già	p	.	.	.	.
16G#\	.	.	.	.	.	.	.	.	.	.	.	.	.	.	.	.	.	.	.	.	.	.	.	.	.	.	.	.	.	.
16E 16C#\	.	.	.	.	.	.	.	.	.	.	.	.	.	.	.	.	.	.	.	.	.	.	.	.	.	.	.	.	.	.
16G#\JJ	.	.	.	.	.	.	.	.	.	.	.	.	.	.	.	.	.	.	.	.	.	.	.	.	.	.	.	.	.	.
!	!	!	!	!	!	!	!	!	!	!	!	!	!	!	!	!	!	!LO:DY:a	!	!	!	!	!	!	!	!	!	!	!	!
8E 8C#\	8e'/L	p	.	.	.	.	.	.	.	.	.	.	.	.	.	.	8e/L	p	4ee\	Po-	Per	p	.	.	.	.	.	.	.	.
8r	8f#'/J	.	.	.	.	.	.	.	.	.	.	.	.	.	.	.	8f#/J	.	.	.	.	.	.	.	.	.	.	.	.	.
=2	=2	=2	=2	=2	=2	=2	=2	=2	=2	=2	=2	=2	=2	=2	=2	=2	=2	=2	=2	=2	=2	=2	=2	=2	=2	=2	=2	=2	=2	=2
*	*^	*	*	*	*	*	*	*	*	*	*	*	*	*	*	*	*	*	*	*	*	*	*	*	*	*	*	*	*	*
!	!	!	!	!	!	!	!	!	!	!	!	!	!	!	!	!	!	!	!	!	!	!	!	!	!	!	!	!LO:TX:a:i:t=(Ratef giunge alla testa d'un drapello di guerrieri)	!	!	!
!	!	!	!	!	!	!	!	!	!	!	!	!	!	!	!	!	!	!	!	!	!	!	!	!	!	!	!	!LO:TX:a:t=(Ratef z kilkoma wojownikami wchodzą)	!	!	!
4D 4DD'/	2g#/	4r	.	1r	.	1r	.	.	.	4r	.	.	.	4r	.	.	.	2g#/	.	2ee\	-że-	sem-	.	2.E\	da-	l'in-	.	1r	.	.	.
4E 4EE'/	.	8eL 8B\	.	.	.	.	.	.	.	4E\	.	.	p	4B\	Los	Già	p	.	.	.	.	.	.	.	.	.	.	.	.	.	.
.	.	8eJ 8B\	.	.	.	.	.	.	.	.	.	.	.	.	.	.	.	.	.	.	.	.	.	.	.	.	.	.	.	.	.
4D 4DD'/	4g#/	4e 4B\	<	.	.	.	.	.	.	2E\	.	.	.	2B\	da-	l'in-	.	4g#/	.	4ee\	-gnaj,	-pre_o	.	.	.	.	.	.	.	.	.
!	!	!	!	!	!	!	!	!	!	!	!	!	!	!	!	!	!	!	!LO:HP:a	!	!	!	!	!	!	!	!	!	!	!	!
4E 4EE'/	8f#/L	4B\	.	.	.	.	.	.	.	.	.	.	<	.	.	.	<	8f#/L	<	4ee\	po-	Ne-	<	4E\	-je	-no	<	.	.	.	.
.	8g#/J	.	.	.	.	.	.	.	.	.	.	.	.	.	.	.	.	8g#/J	.	.	.	.	.	.	.	.	.	.	.	.	.
=3	=3	=3	=3	=3	=3	=3	=3	=3	=3	=3	=3	=3	=3	=3	=3	=3	=3	=3	=3	=3	=3	=3	=3	=3	=3	=3	=3	=3	=3	=3	=3
4C# 4CC#'/	2a/	4r	.	1r	.	1r	.	.	.	4C#/	.	.	.	4A/	-je	-no	.	2a/	.	2ee\	-że-	-a-	.	2A\	jej	d'e-	.	1r	.	.	.
4E 4EE'/	.	8eL 8A\	.	.	.	.	.	.	.	8E\	.	.	.	8c#\	ci	d'e-	.	.	.	.	.	.	.	.	.	.	.	.	.	.	.
.	.	8eJ 8A\	.	.	.	.	.	.	.	8E\	.	.	.	8c#\	w_za-	-sul-	.	.	.	.	.	.	.	.	.	.	.	.	.	.	.
4C# 4CC#'/	4a/	4e 4A\	.	.	.	.	.	.	.	4C#/	.	.	.	4A/	-mia-	-tan-	.	4a/	.	4a/	-gnaj	-la	.	2c#\	wza-	-sul-	.	.	.	.	.
4E 4EE'/	8g#/L	4e 4A\	.	.	.	.	.	.	.	4C#/	.	.	.	4E/	-nę	-za	.	8g#/L	.	8g#/L	po-	dal	.	.	.	.	.	.	.	.	.
.	8a/J	.	.	.	.	.	.	.	.	.	.	.	.	.	.	.	.	8a/J	.	8a/J	.	.	.	.	.	.	.	.	.	.	.
=4	=4	=4	=4	=4	=4	=4	=4	=4	=4	=4	=4	=4	=4	=4	=4	=4	=4	=4	=4	=4	=4	=4	=4	=4	=4	=4	=4	=4	=4	=4	=4
4D 4DD'/	4b/	4f#\	.	1r	.	1r	.	.	.	4r	.	.	.	4r	.	.	.	4b\	.	4b/	-że-	tem-	.	(4d\	-mia-	-tan-	.	1r	.	.	.
8C#L 8CC#'/	8a#X/L	8e\L	.	.	.	.	.	.	.	4F#\	.	.	.	4F#/	Za	in	.	8a#X/L	.	8a#X/L	-gnaj	-pio	.	8c#\L	.	.	.	.	.	.	.
8BBJ 8BBB'/	8b/J	8d\J	.	.	.	.	.	.	.	.	.	.	.	.	.	.	.	8b/J	.	8b/J	.	.	.	8B\J)	.	.	.	.	.	.	.
4AA#X 4AAA#X'/	4cc#/	4f# 4e\	.	.	.	.	.	.	.	4F#\	.	.	.	4F#/	mi-	lut-	.	4cc#\	.	4cc#\	świę-	t'ac-	.	4A#X\	-nę	-za	.	.	.	.	.
4FF# 4FFF#'/	8b/L	4f# 4e\	.	.	.	.	.	.	.	4F#\	.	.	.	4F#/	-łość	-to	.	4f#/	.	8b\L	-te	-co-	.	4F#\	Za	in	.	.	.	.	.
.	8cc#/J	.	.	.	.	.	.	.	.	.	.	.	.	.	.	.	.	.	.	8cc#\J	.	.	.	.	.	.	.	.	.	.	.
=5	=5	=5	=5	=5	=5	=5	=5	=5	=5	=5	=5	=5	=5	=5	=5	=5	=5	=5	=5	=5	=5	=5	=5	=5	=5	=5	=5	=5	=5	=5	=5
4BB 4BBB/	2ee/	2a#X 2f#\	.	2r	.	2r	.	.	.	4r	.	.	.	4r	.	.	.	2f#/	.	2ee 2cc#\	ga-	-mia-	.	2B\	mi-	lut-	.	2r	.	.	.
4F# 4FF#'/	.	.	.	.	.	.	.	.	.	8F#\	.	.	.	8c#\	cza-	si	.	.	.	.	.	.	.	.	.	.	.	.	.	.	.
.	.	.	.	.	.	.	.	.	.	8F#\	.	.	.	8c#\	-rę	can-	.	.	.	.	.	.	.	.	.	.	.	.	.	.	.
4B 4BB'\	4dd/	4b 4f#\	.	4r	.	4r	.	.	.	4B\	.	.	.	4d\	łez.	-giò.	.	4b\	.	4dd 4b\	-je,	-ti.	.	2F#\	-łość	-to	.	4r	.	.	.
!	!	!	!	!	!LO:DY:a	!	!	!	!	!	!	!	!	!	!	!	!	!	!	!	!	!	!	!	!	!	!	!	!	!	!LO:DY:cj
8BBL 8BBB/	8gg#L 8dd 8b\	4ryy	<	4B\	p	4B\	I-	I-	p	4r	.	.	.	4r	.	.	.	4f#/	.	4dd\	Po-	Sor-	.	.	.	.	.	4B\	I-	I-	mf
8BBJ 8BBB/	8ff#J 8dd 8b\	.	.	.	.	.	.	.	.	.	.	.	.	.	.	.	.	.	.	.	.	.	.	.	.	.	.	.	.	.	.
*	*v	*v	*	*	*	*	*	*	*	*	*	*	*	*	*	*	*	*	*	*	*	*	*	*	*	*	*	*	*	*	*
!!LO:PB:g=original
=6	=6	=6	=6	=6	=6	=6	=6	=6	=6	=6	=6	=6	=6	=6	=6	=6	=6	=6	=6	=6	=6	=6	=6	=6	=6	=6	=6	=6	=6	=6
4BB 4BBB/	4ee 4b 4g#\	.	2B\	.	2f# 2B\	-da-	-da-	.	1r	.	.	.	1r	.	.	.	4f#/	.	4ee\	-wi-	-ri-	.	4D\	cza-	si	.	2f#\	-da-	-da-	.
16BBB/LL	4dd 4b 4f#/	.	.	.	.	.	.	.	.	.	.	.	.	.	.	.	4f#/	.	4dd\	-taj	-de_il	.	4E\	-rę	can-	.	.	.	.	.
16BB/	.	.	.	.	.	.	.	.	.	.	.	.	.	.	.	.	.	.	.	.	.	.	.	.	.	.	.	.	.	.
16BBB/	.	.	.	.	.	.	.	.	.	.	.	.	.	.	.	.	.	.	.	.	.	.	.	.	.	.	.	.	.	.
16BB/JJ	.	.	.	.	.	.	.	.	.	.	.	.	.	.	.	.	.	.	.	.	.	.	.	.	.	.	.	.	.	.
4C# 4CC#/	4cc# 4f#/	.	8B\	.	8B\	-mor!	-mor!	.	.	.	.	.	.	.	.	.	4e/	.	4cc#\	u-	mon-	.	4F#\	łez.	-giò.	.	8B\	-mor!	-mor!	.
.	.	.	8r	.	8r	.	.	.	.	.	.	.	.	.	.	.	.	.	.	.	.	.	.	.	.	.	8r	.	.	.
4D 4DD/	4b 4f#/	.	8B\	.	8B\	Wiel-	Giu-	.	.	.	.	.	.	.	.	.	4d/	.	4b\	-ciech	-do_a	.	4r	.	.	.	8B\	Wiel-	Giu-	.
.	.	.	8B\	.	8B\	-kie	-sto	.	.	.	.	.	.	.	.	.	.	.	.	.	.	.	.	.	.	.	8B\	-kie	-sto	.
=7	=7	=7	=7	=7	=7	=7	=7	=7	=7	=7	=7	=7	=7	=7	=7	=7	=7	=7	=7	=7	=7	=7	=7	=7	=7	=7	=7	=7	=7	=7
*	*^	*	*	*	*	*	*	*	*	*	*	*	*	*	*	*	*	*	*	*	*	*	*	*	*	*	*	*	*	*
!	!	!	!	!	!	!	!	!	!	!	!	!	!	!	!	!	!	!	!	!	!	!	!	!LO:TX:a:i:t=(si incammina verso il fondo all' incontro di Neala, e ritorna con essa)	!	!	!	!	!	!	!
!	!	!	!	!	!	!	!	!	!	!	!	!	!	!	!	!	!	!	!	!	!	!	!	!LO:TX:a:t=(odchodzi w głąb sceny na spotkanie Neali i znią wraca)	!	!	!	!	!	!	!
4E 4EE'/	2eeT/	4cc# 4a\	.	2A\	.	2c#\	nie-	cie-	.	1r	.	.	.	2r	.	.	.	2.c#/	.	2.ee\	świat,	te.	.	1r	.	.	.	2e\	nie-	cie-	.
4c# 4A 4E'\	.	4ryy	.	.	.	.	.	.	.	.	.	.	.	.	.	.	.	.	.	.	.	.	.	.	.	.	.	.	.	.	.
.	16qqdd#X/LL	.	.	.	.	.	.	.	.	.	.	.	.	.	.	.	.	.	.	.	.	.	.	.	.	.	.	.	.	.	.
.	16qqee/JJ	.	.	.	.	.	.	.	.	.	.	.	.	.	.	.	.	.	.	.	.	.	.	.	.	.	.	.	.	.	.
4A 4E 4C#'\	8aa\	4ryy	.	4E\	.	4A/	-ba!	-lo!	.	.	.	.	.	4r	.	.	.	.	.	.	.	.	.	.	.	.	.	4c#\	-ba!	-lo!	.
.	8r	.	.	.	.	.	.	.	.	.	.	.	.	.	.	.	.	.	.	.	.	.	.	.	.	.	.	.	.	.	.
16EE/LL	(8dd#X/L	4ccn 4a^\	.	4r	.	4r	.	.	.	.	.	.	.	4A/	To	È_un	.	4a/	.	4a/	Po-	Sor-	.	.	.	.	.	4r	.	.	.
16E/	.	.	.	.	.	.	.	.	.	.	.	.	.	.	.	.	.	.	.	.	.	.	.	.	.	.	.	.	.	.	.
16EE/	8ff#/J)	.	.	.	.	.	.	.	.	.	.	.	.	.	.	.	.	.	.	.	.	.	.	.	.	.	.	.	.	.	.
16E/JJ	.	.	.	.	.	.	.	.	.	.	.	.	.	.	.	.	.	.	.	.	.	.	.	.	.	.	.	.	.	.	.
=8	=8	=8	=8	=8	=8	=8	=8	=8	=8	=8	=8	=8	=8	=8	=8	=8	=8	=8	=8	=8	=8	=8	=8	=8	=8	=8	=8	=8	=8	=8	=8
4EE/	4ee/	4b 4g#\	.	1r	.	1r	.	.	.	2r	.	.	.	4..e\	Pa-	Pa-	.	4g#/	.	4b\	-wi-	-ri-	.	1r	.	.	.	1r	.	.	.
4F# 4E\	(8b/L	4f#\	.	.	.	.	.	.	.	.	.	.	.	.	.	.	.	4f#/	.	8b\L	-taj	-de_il	.	.	.	.	.	.	.	.	.
.	8ddn/J)	.	.	.	.	.	.	.	.	.	.	.	.	.	.	.	.	.	.	8dd\J	.	.	.	.	.	.	.	.	.	.	.
.	.	.	.	.	.	.	.	.	.	.	.	.	.	16E/	-ri-	-ri-	.	.	.	.	.	.	.	.	.	.	.	.	.	.	.
4F##X 4E\	4cc#/	4e\	.	.	.	.	.	.	.	4r	.	.	.	4E/	-a!	-a!	.	4e/	.	4cc#\	u-	mon-	.	.	.	.	.	.	.	.	.
4G# 4E\	4b/	4d\	.	.	.	.	.	.	.	4E\	To	È_un	.	4r	.	.	.	4d/	.	4b\	-ciech	-do_a	.	.	.	.	.	.	.	.	.
=9	=9	=9	=9	=9	=9	=9	=9	=9	=9	=9	=9	=9	=9	=9	=9	=9	=9	=9	=9	=9	=9	=9	=9	=9	=9	=9	=9	=9	=9	=9	=9
4A 4E 4AA\	4a/	4c#\	.	2r	.	2r	.	.	.	4..A\	Pa-	Pa-	.	1r	.	.	.	2.e/	.	2.e/	świat,	te.	.	1r	.	.	.	2r	.	.	.
4F# 4AA/	(<16b/LL	4d\	.	.	.	.	.	.	.	.	.	.	.	.	.	.	.	.	.	.	.	.	.	.	.	.	.	.	.	.	.
.	16a/	.	.	.	.	.	.	.	.	.	.	.	.	.	.	.	.	.	.	.	.	.	.	.	.	.	.	.	.	.	.
.	16g#/	.	.	.	.	.	.	.	.	.	.	.	.	.	.	.	.	.	.	.	.	.	.	.	.	.	.	.	.	.	.
.	16f#/JJ)	.	.	.	.	.	.	.	.	16E\	-ri-	-ri-	.	.	.	.	.	.	.	.	.	.	.	.	.	.	.	.	.	.	.
4A 4AA\	4e/	4c#\	.	4r	.	4r	.	.	.	4E\	-a!	-a!	.	.	.	.	.	.	.	.	.	.	.	.	.	.	.	4r	.	.	.
!	!	!	!LO:DY:cj	!	!LO:DY:a:cj	!	!	!	!LO:DY:cj	!	!	!	!	!	!	!	!	!	!LO:DY:a:cj	!	!	!	!LO:DY:cj	!	!	!	!	!	!	!	!LO:DY:cj
4c# 4A 4E\	8eeL 8e/	4ryy	mf	4A\	mf	4c#\	Lecz	L'in-	mf	4r	.	.	.	.	.	.	.	8e/L	mf	8e/L	Po-	Per	mf	.	.	.	.	4e\	Lecz	L'in-	mf
.	8ff#J 8f#/	.	.	.	.	.	.	.	.	.	.	.	.	.	.	.	.	8f#/J	.	8f#/J	.	.	.	.	.	.	.	.	.	.	.
=10	=10	=10	=10	=10	=10	=10	=10	=10	=10	=10	=10	=10	=10	=10	=10	=10	=10	=10	=10	=10	=10	=10	=10	=10	=10	=10	=10	=10	=10	=10	=10
4D 4DD'/	2gg# 2g#/	4r	.	4.E^\	.	4.B^\	on	-vit-	.	1r	.	.	.	1r	.	.	.	2g#/	.	2g#/	-że-	sem-	.	1r	.	.	.	4.e^\	on	-vit-	.
4E 4EE'/	.	8eeL 8b\	.	.	.	.	.	.	.	.	.	.	.	.	.	.	.	.	.	.	.	.	.	.	.	.	.	.	.	.	.
.	.	8eeJ 8b\	.	8E\	.	8B\	nas	-to	.	.	.	.	.	.	.	.	.	.	.	.	.	.	.	.	.	.	.	8d\	nas	-to	.
4D 4DD'/	4gg#/	4ee 4b 4g#\	.	4E\	.	4B\	wiódł	no-	.	.	.	.	.	.	.	.	.	4g#/	.	4g#/	-gnaj,	-pre,	.	.	.	.	.	4B\	wiódł	no-	.
4E 4EE'/	8ff#L 8f#/	4b\	.	4E\	.	4E/	do	-stro	.	.	.	.	.	.	.	.	.	8f#/L	.	8f#/L	po-	Ne-	.	.	.	.	.	4G#/	do	-stro	.
.	8gg#J 8g#/	.	.	.	.	.	.	.	.	.	.	.	.	.	.	.	.	8g#/J	.	8g#/J	.	.	.	.	.	.	.	.	.	.	.
!!LO:PB:g=original
=11	=11	=11	=11	=11	=11	=11	=11	=11	=11	=11	=11	=11	=11	=11	=11	=11	=11	=11	=11	=11	=11	=11	=11	=11	=11	=11	=11	=11	=11	=11	=11
4C# 4CC#'/	2aa 2a/	4r	.	2A\	.	2f#\	sła-	du-	.	2r	.	.	.	2r	.	.	.	2a/	.	2a/	-że-	-a-	.	1r	.	.	.	2f#\	sła-	du-	.
4E 4EE'/	.	8eeL 8cc#\	.	.	.	.	.	.	.	.	.	.	.	.	.	.	.	.	.	.	.	.	.	.	.	.	.	.	.	.	.
.	.	8eeJ 8cc#\	.	.	.	.	.	.	.	.	.	.	.	.	.	.	.	.	.	.	.	.	.	.	.	.	.	.	.	.	.
4C# 4CC#'/	4aa/	4ee 4cc# 4a\	.	4c#\	.	4e\	-wy!	-ce!	.	4r	.	.	.	4r	.	.	.	4a/	.	4a/	-gnaj	-la,	.	.	.	.	.	4e\	-wy!	-ce!	.
4E 4EE'/	8gg#L 8g#/	4ee 4cc#\	.	4r	.	4r	.	.	.	4c#\	.	.	.	4c#\	To	Un	.	8g#/L	.	8g#/L	po-	dal	.	.	.	.	.	4r	.	.	.
.	8aaJ 8a/	.	.	.	.	.	.	.	.	.	.	.	.	.	.	.	.	8a/J	.	8a/J	.	.	.	.	.	.	.	.	.	.	.
=12	=12	=12	=12	=12	=12	=12	=12	=12	=12	=12	=12	=12	=12	=12	=12	=12	=12	=12	=12	=12	=12	=12	=12	=12	=12	=12	=12	=12	=12	=12	=12
4D 4DD^/	4bb/	4b\	.	1r	.	1r	.	.	.	4d\	.	.	.	4d\	Pa-	Pa-	.	4b\	.	4b\	-że-	tem-	.	1r	.	.	.	2r	.	.	.
!	!	!	!	!	!	!	!	!	!	!	!	!	!	!	!	!	!	!	!LO:HP:a	!	!	!	!	!	!	!	!	!	!	!	!
8C#L 8CC#'/	8aa#XL 8ff# 8a#X\	4ryy	<	.	.	.	.	.	.	8c#\L	.	.	<	8c#\L	-ri-	-ri-	<	4f#/	<	8a#X/L	-gnaj	-pio	<	.	.	.	.	.	.	.	.
8BBJ 8BBB'/	8bbJ 8ff# 8b\	.	.	.	.	.	.	.	.	8B\J	.	.	.	8B\J	.	.	.	.	.	8b/J	.	.	.	.	.	.	.	.	.	.	.
4AA#X 4AAA#X'/	4ccc# 4ff# 4cc#\	4ryy	.	.	.	.	.	.	.	4A#X\	.	.	.	4A#X/	-a!	-a!	.	4f#/	.	4cc#\	świę-	t'ac-	.	.	.	.	.	4r	.	.	.
4FF# 4FFF#'/	8bbL 8b/	4ff#\	.	.	.	.	.	.	.	4r	.	.	.	4r	.	.	.	4f#/	.	8b\L	-te	-co-	.	.	.	.	.	4F#/	Ach	Com-	.
.	8ccc#J 8cc#/	.	.	.	.	.	.	.	.	.	.	.	.	.	.	.	.	.	.	8cc#\J	.	.	.	.	.	.	.	.	.	.	.
=13	=13	=13	=13	=13	=13	=13	=13	=13	=13	=13	=13	=13	=13	=13	=13	=13	=13	=13	=13	=13	=13	=13	=13	=13	=13	=13	=13	=13	=13	=13	=13
4BB 4BBB/	(2eee/	4ff# 4ee\	.	1r	.	1r	.	.	.	1r	.	.	.	1r	.	.	.	2f#/	.	2ee 2cc#\	ga-	-mia-	.	1r	.	.	.	2f#\	bra-	-pa-	.
4F# 4FF#/	.	4ff# 4ee\	.	.	.	.	.	.	.	.	.	.	.	.	.	.	.	.	.	.	.	.	.	.	.	.	.	.	.	.	.
4B 4BB\	4ddd/)	4ff# 4dd\	.	.	.	.	.	.	.	.	.	.	.	.	.	.	.	4f#/	.	4dd 4b\	-je,	-ti,	.	.	.	.	.	4B\	-cia!	-gni!	.
!	!	!	!	!	!	!	!	!	!	!	!	!	!	!	!	!	!	!	!LO:HP:a	!	!	!	!	!	!	!	!	!	!	!	!
8BBL 8BBB/	8dddL 8bb 8dd\	4ryy	<	.	.	.	.	.	.	.	.	.	.	.	.	.	.	4f#/	<	8ddL 8b\	Przed-	Dal	<	.	.	.	.	8B\	spie-	In	<
8BBJ 8BBB/	8ccc#J 8aa 8cc#\	.	.	.	.	.	.	.	.	.	.	.	.	.	.	.	.	.	.	8eeJ 8cc#\	.	.	.	.	.	.	.	8c#\	-szmy	suo_o-	.
*	*v	*v	*	*	*	*	*	*	*	*	*	*	*	*	*	*	*	*	*	*	*	*	*	*	*	*	*	*	*	*	*
=14	=14	=14	=14	=14	=14	=14	=14	=14	=14	=14	=14	=14	=14	=14	=14	=14	=14	=14	=14	=14	=14	=14	=14	=14	=14	=14	=14	=14	=14	=14
*	*	*	*	*	*	*	*	*	*	*	*	*	*	*	*	*	*	*	*^	*	*	*	*	*	*	*	*	*	*	*
4BB 4BBB^/	4bb 4gg# 4b\	.	1r	.	1r	.	.	.	1r	.	.	.	1r	.	.	.	4b\	.	4gg# 4ee\	4ryy	-wiecz-	tem-	.	1r	.	.	.	4.d\	stos	-nor	.
8C#L 8CC#/	4aa 4ff# 4a\	.	.	.	.	.	.	.	.	.	.	.	.	.	.	.	4a/	.	4ff#/	4ff#\	-ny	-pio	.	.	.	.	.	.	.	.	.
8DJ 8DD/	.	.	.	.	.	.	.	.	.	.	.	.	.	.	.	.	.	.	.	.	.	.	.	.	.	.	.	8f#\	mę-	il	.
4E 4EE/	4gg# 4ee 4g#\	.	.	.	.	.	.	.	.	.	.	.	.	.	.	.	4g#/	.	4ee/	4ee\	ci	t'ac-	.	.	.	.	.	4e\	-żne-	ro-	.
8F#L 8FF#/	8ff#L 8dd 8f#\	.	.	.	.	.	.	.	.	.	.	.	.	.	.	.	4b\	.	8ff#/L	4dd\	od-	-co-	.	.	.	.	.	4d\	-mu	-go_er-	.
8G#J 8GG#/	8eeJ 8dd 8e\	.	.	.	.	.	.	.	.	.	.	.	.	.	.	.	.	.	8ee/J	.	.	.	.	.	.	.	.	.	.	.	.
=15	=15	=15	=15	=15	=15	=15	=15	=15	=15	=15	=15	=15	=15	=15	=15	=15	=15	=15	=15	=15	=15	=15	=15	=15	=15	=15	=15	=15	=15	=15	=15
*	*	*	*	*	*^	*^	*^	*	*	*	*	*	*	*	*	*	*	*	*	*	*	*	*	*	*	*	*	*	*	*	*
*	*	*	*	*	*	*	*above	*	*above	*	*	*	*	*	*	*	*	*	*	*	*	*	*	*	*	*	*	*	*	*	*	*	*	*
4A 4AA\	4ee 4cc# 4e/	.	4r	.	4r	4ryy	.	.	.	.	.	1r	.	.	.	1r	.	.	.	(4a/	.	2ee/	(4cc#\	-da-	-mia-	.	1r	.	.	.	4c#\	wznieść!	-giam.	.
!	!	!	!	!LO:DY:a	!	!	!	!	!	!	!	!	!	!	!	!	!	!	!	!	!	!	!	!	!	!	!	!	!	!	!	!	!	!
4G# 4E 4BB\	(16ee\LL	.	4E\	f	4e/	4e\	Stos	Tak,	Al	Al	f	.	.	.	.	.	.	.	.	4e/)	.	.	4ee\)	.	.	.	.	.	.	.	4r	.	.	.
.	16gg#\	.	.	.	.	.	.	.	.	.	.	.	.	.	.	.	.	.	.	.	.	.	.	.	.	.	.	.	.	.	.	.	.	.
.	16bb\	.	.	.	.	.	.	.	.	.	.	.	.	.	.	.	.	.	.	.	.	.	.	.	.	.	.	.	.	.	.	.	.	.
.	16ddd\JJ	.	.	.	.	.	.	.	.	.	.	.	.	.	.	.	.	.	.	.	.	.	.	.	.	.	.	.	.	.	.	.	.	.
4A 4E 4C#\	4ccc#\)	.	4c#\	.	[2a/	4e\	śpiesz-	śpiesz-	pro-	pro-	.	.	.	.	.	.	.	.	.	4cc#\	.	4ee/	4ee\	je	-ti.	.	.	.	.	.	2r	.	.	.
!	!	!	!	!	!	!	!	!	!	!	!	!	!	!	!	!	!	!	!	!	!LO:DY:a	!	!	!	!	!	!	!	!	!	!	!	!	!
4A 4F# 4D\	(16bb\LL	.	4A\	.	.	4f#\	.	-my	.	-de_il	.	.	.	.	.	.	.	.	.	4b\	f	4dd/	4dd\	No-	Sor-	f	.	.	.	.	.	.	.	.
.	16aa\	.	.	.	.	.	.	.	.	.	.	.	.	.	.	.	.	.	.	.	.	.	.	.	.	.	.	.	.	.	.	.	.	.
.	16gg#\	.	.	.	.	.	.	.	.	.	.	.	.	.	.	.	.	.	.	.	.	.	.	.	.	.	.	.	.	.	.	.	.	.
.	16ff#\JJ)	.	.	.	.	.	.	.	.	.	.	.	.	.	.	.	.	.	.	.	.	.	.	.	.	.	.	.	.	.	.	.	.	.
*	*	*	*	*	*	*	*	*	*	*	*	*	*	*	*	*	*	*	*	*	*	*v	*v	*	*	*	*	*	*	*	*	*	*	*
!!LO:PB:g=original
=16	=16	=16	=16	=16	=16	=16	=16	=16	=16	=16	=16	=16	=16	=16	=16	=16	=16	=16	=16	=16	=16	=16	=16	=16	=16	=16	=16	=16	=16	=16	=16	=16	=16
4c# 4A 4E\	4ee\	.	4.E\	.	4.a/]	4.e\	.	stos	.	ro-	.	2r	.	.	.	2r	.	.	.	4.a/	.	4.cc#\	-we-	-ri-	.	1r	.	.	.	2r	.	.	.
4e 4c# 4A\	(16aa\LL	.	.	.	.	.	.	.	.	.	.	.	.	.	.	.	.	.	.	.	.	.	.	.	.	.	.	.	.	.	.	.	.
.	16gg#\	.	.	.	.	.	.	.	.	.	.	.	.	.	.	.	.	.	.	.	.	.	.	.	.	.	.	.	.	.	.	.	.
.	16ff#\	.	8E\	.	8a/	8e\	-my	mu	de_er-	-go er-	.	.	.	.	.	.	.	.	.	8a/	.	8cc#\	-go	-de_il	.	.	.	.	.	.	.	.	.
.	16ee\JJ)	.	.	.	.	.	.	.	.	.	.	.	.	.	.	.	.	.	.	.	.	.	.	.	.	.	.	.	.	.	.	.	.
4E 4EE/	4ee 4g#\	.	4E\	.	4e/	4e\	wzniesc	wznieść,	-giam	-giam.	.	4r	.	.	.	4r	.	.	.	4g#/	.	4b\	ży-	mon-	.	.	.	.	.	4r	.	.	.
!	!	!	!	!LO:DY:a	!	!	!	!	!	!	!	!	!	!	!	!	!	!	!	!	!	!	!	!	!	!	!	!	!	!	!	!	!
4e 4B 4G#\	(16ee\LL	.	4B\	f	4B\	4ryy	.	Gdy	.	Se	f	4E\	.	.	f	4e\	On	Un	f	4b\	.	4b\	-cia	-do_a	.	.	.	.	.	4e\	Gdy	Se	f
.	16dd#X\	.	.	.	.	.	.	.	.	.	.	.	.	.	.	.	.	.	.	.	.	.	.	.	.	.	.	.	.	.	.	.	.
.	16cc#\	.	.	.	.	.	.	.	.	.	.	.	.	.	.	.	.	.	.	.	.	.	.	.	.	.	.	.	.	.	.	.	.
.	16b\JJ)	.	.	.	.	.	.	.	.	.	.	.	.	.	.	.	.	.	.	.	.	.	.	.	.	.	.	.	.	.	.	.	.
*	*	*	*	*	*	*	*v	*v	*	*	*	*	*	*	*	*	*	*	*	*	*	*	*	*	*	*	*	*	*	*	*	*	*
*	*	*	*	*	*	*	*	*v	*v	*	*	*	*	*	*	*	*	*	*	*	*	*	*	*	*	*	*	*	*	*	*	*
=17	=17	=17	=17	=17	=17	=17	=17	=17	=17	=17	=17	=17	=17	=17	=17	=17	=17	=17	=17	=17	=17	=17	=17	=17	=17	=17	=17	=17	=17	=17	=17
*	*	*	*^	*	*	*	*	*	*	*	*	*	*	*	*	*	*	*	*	*	*	*	*	*	*	*	*	*^	*	*	*
*	*	*	*	*	*	*	*	*Xabove	*Xabove	*	*	*	*	*	*	*	*	*	*	*	*	*	*	*	*	*	*	*	*	*	*	*	*
4D#X 4DD#X^/	[2bb 2aa 2ff# [2b^\	.	4..B\	4.ryy	.	4..f#\	4.ryy	Par-	del-	.	2D#X^\	.	.	.	2d#X^\	Pa-	Pa-	.	(2a/	.	(2ff#\	kwiat,	te	.	1r	.	.	.	4..f#\	4.ryy	Par-	del-	.
4B 4F# 4D#\	.	.	.	.	.	.	.	.	.	.	.	.	.	.	.	.	.	.	.	.	.	.	.	.	.	.	.	.	.	.	.	.	.
.	.	.	.	8ryy	.	.	8ryy	.	.	.	.	.	.	.	.	.	.	.	.	.	.	.	.	.	.	.	.	.	.	8ryy	.	.	.
.	.	.	16B\	.	.	16B\	.	-ję	-l'e-	.	.	.	.	.	.	.	.	.	.	.	.	.	.	.	.	.	.	.	16B\	.	-ję	-l'e-	.
4Dn 4DDn^/	4bb] 4gg# 4ee 4b\]	.	4B\	4ryy	.	4B\	4ryy	tu	-roe	.	4Dn\	.	.	.	4dn\	-rja!	-ria!	.	4g#/)	.	4b\)	.	.	.	.	.	.	.	4B\	4ryy	tu	-roe	.
4e 4G# 4E\	8.ccc#L 8.cc#\	.	8A/L	8A\	.	8c#/L	8c#\	do-	qui	.	8r	.	.	.	8r	.	.	.	8a/L	.	8cc#\L	Przed-	ne'	.	.	.	.	.	8c#/L	8c#\	do-	qui	.
.	.	.	8B/J	8B\	.	8d/J	8d\	.	tra-	.	8D\	.	.	.	8d\	on	che	.	8b/J	.	8dd\J	.	.	.	.	.	.	.	8d/J	8d\	.	tra-	.
.	16dddJk 16dd\	.	.	.	.	.	.	.	.	.	.	.	.	.	.	.	.	.	.	.	.	.	.	.	.	.	.	.	.	.	.	.	.
*	*	*	*v	*v	*	*	*	*	*	*	*	*	*	*	*	*	*	*	*	*	*	*	*	*	*	*	*	*	*v	*v	*	*	*
*	*	*	*	*	*v	*v	*	*	*	*	*	*	*	*	*	*	*	*	*	*	*	*	*	*	*	*	*	*	*	*	*
=18	=18	=18	=18	=18	=18	=18	=18	=18	=18	=18	=18	=18	=18	=18	=18	=18	=18	=18	=18	=18	=18	=18	=18	=18	=18	=18	=18	=18	=18	=18
*	*8va	*	*	*	*	*	*	*	*	*	*	*	*	*	*	*	*	*	*	*	*	*	*	*	*	*	*	*	*	*
4c# 4A 4E 4C#^\	4eee 4ee/	.	4c#\	.	4e\	-się-	-mon-	.	(4C#/	.	.	.	(4c#\	spraw-	vi-	.	4cc#\	.	4ee\	-wiecz-	gau-	.	1r	.	.	.	4e\	-się-	-mon-	.
4B 4E 4BB^\	8.fff#L 8.ddd 8.ff#\	.	8E\	.	8e\	-gnął	-ta	.	4BB/)	.	.	.	4B\)	.	.	.	4g#/	.	4b\	-ny	-di_in-	.	.	.	.	.	8e\	-gnął	-ta	.
.	.	.	8E\	.	8e\	cios	la	.	.	.	.	.	.	.	.	.	.	.	.	.	.	.	.	.	.	.	8e\	cios	la	.
.	16ggg#Jk 16gg#\	.	.	.	.	.	.	.	.	.	.	.	.	.	.	.	.	.	.	.	.	.	.	.	.	.	.	.	.	.
4A 4E 4AA^\	4aaa 4ccc# 4aa\	.	4A\	.	4e\	krwa-	glo-	.	4AA/	.	.	.	4A/	-ca	-ver	.	4a/	.	4cc#\	ci	-ter-	.	.	.	.	.	4e\	krwa-	glo-	.
8EL 8EE/	4ccc# 4aa 4ff# 4cc#/	.	4c#\	.	4c#\	-wy,	-ria,	.	4E\	.	.	.	4e\	bo-	fra	.	4a/	.	4a/	od-	-mi-	.	.	.	.	.	4c#\	-wy,	-ria,	.
8D#XJ 8DD#X/	.	.	.	.	.	.	.	.	.	.	.	.	.	.	.	.	.	.	.	.	.	.	.	.	.	.	.	.	.	.
=19	=19	=19	=19	=19	=19	=19	=19	=19	=19	=19	=19	=19	=19	=19	=19	=19	=19	=19	=19	=19	=19	=19	=19	=19	=19	=19	=19	=19	=19	=19
*	*	*	*	*	*	*	*	*	*	*	*	*	*	*	*	*	*^	*	*^	*	*	*	*	*	*	*	*	*	*	*
4D#X 4DD#X/	[2bb 2aa 2ff# [2b/	.	4..B\	.	4..f#\	Tam	l'al-	.	2D#X\	.	.	.	2d#X\	-le-	no-	.	(2a/	2ryy	.	(2ff#\	2ryy	-da-	-na-	.	1r	.	.	.	4..f#\	Tam	l'al-	.
4B 4F# 4D#\	.	.	.	.	.	.	.	.	.	.	.	.	.	.	.	.	.	.	.	.	.	.	.	.	.	.	.	.	.	.	.	.
.	.	.	16B\	.	16f#\	duch	-ma	.	.	.	.	.	.	.	.	.	.	.	.	.	.	.	.	.	.	.	.	.	16B\	duch	-ma	.
4Dn 4DDn/	4bb] 4gg# 4ee 4b/]	.	4B\	.	4f#\	je-	sua	.	4Dn\	.	.	.	4dn\	-śći	-i	.	4g#/)	4ryy	.	4b\)	4ryy	.	-ti	.	.	.	.	.	4B\	je-	sua	.
4e 4G# 4E\	8.ccc#L 8.cc#/	.	8A\	.	8f#\	-go	sa-	.	8r	.	.	.	8r	.	.	.	8a/L	8a\	.	8cc#/L	8cc#\	-je	d'a-	.	.	.	.	.	8c#\	-go	sa-	.
.	.	.	8B\	.	8g#\	od-	-li-	.	8D\	.	.	.	8d\	J	im-	.	8b/J	8b\	.	8dd/J	8dd\	.	-mo-	.	.	.	.	.	8d\	od-	-li-	.
.	16dddJk 16dd/	.	.	.	.	.	.	.	.	.	.	.	.	.	.	.	.	.	.	.	.	.	.	.	.	.	.	.	.	.	.	.
*	*	*	*	*	*	*	*	*	*	*	*	*	*	*	*	*	*v	*v	*	*	*	*	*	*	*	*	*	*	*	*	*	*
*	*	*	*	*	*	*	*	*	*	*	*	*	*	*	*	*	*	*	*v	*v	*	*	*	*	*	*	*	*	*	*	*
!!LO:PB:g=original
=20	=20	=20	=20	=20	=20	=20	=20	=20	=20	=20	=20	=20	=20	=20	=20	=20	=20	=20	=20	=20	=20	=20	=20	=20	=20	=20	=20	=20	=20	=20
!	!	!	!	!	!	!	!	!	!	!	!	!	!	!	!	!	!	!	!	!	!	!	!	!	!	!	!LO:TX:a:i:t=(I guerrieri sollevano il corpo di Idamor e lo portano verso il fondo. A metà della scena incontrano il corteggio\nnuziale che accompagna Neala.)	!	!	!
!	!	!	!	!	!	!	!	!	!	!	!	!	!	!	!	!	!	!	!	!	!	!	!	!	!	!	!LO:TX:a:t=(Wojownicy z Ratefem unoszą ciało Idamora Spotyka ich orszak ślubny, który prowadząc Nealę znajduje się\nw tej chwili już prawie na przodzie sceny.)	!	!	!
4c# 4A 4E 4C#^\	4eee 4ee/	.	4c#\	.	4a\	-bie-	-rà	.	4C#/	.	.	.	4c#\	na-	-pu-	.	4cc#\	.	4ee\	ży-	-ro-	.	1r	.	.	.	4.e\	-bie-	-rà	.
4B 4E 4BB^\	8.fff#L 8.ddd 8.ff#\	.	4E\	.	4e\	-rze	al	.	4BB/	.	.	.	4B\	-szych	-ro_o-	.	4g#/	.	4dd\	-cia	-sa	.	.	.	.	.	.	.	.	.
.	.	.	.	.	.	.	.	.	.	.	.	.	.	.	.	.	.	.	.	.	.	.	.	.	.	.	8e\	-rze	al	.
.	16ggg#Jk 16gg#\	.	.	.	.	.	.	.	.	.	.	.	.	.	.	.	.	.	.	.	.	.	.	.	.	.	.	.	.	.
4A 4E 4AA^\	4aaa 4ccc# 4aa\	.	4A\	.	4f#\	cześć!	ciel.	.	4AA/	.	.	.	4A/	drżeń,	-sò.	.	4a/	.	4cc#\	kwiat	fè.	.	.	.	.	.	4e\	cześć!	ciel!	.
!	!	!	!	!LO:DY:a:cj	!	!	!	!LO:DY:cj	!	!	!	!LO:DY:cj	!	!	!	!LO:DY:cj	!	!	!	!	!	!	!	!	!	!	!	!	!	!LO:DY:cj
4F# 4FF#^/	4aaa 4fff# 4ccc# 4aa^\	ff	4c#\	ff	4a\	Ach	Com-	ff	4F#\	.	.	ff	4f#\	Gniew	In-	ff	4r	.	4r	.	.	.	.	.	.	.	4c#\	Ach	Com-	ff
=21	=21	=21	=21	=21	=21	=21	=21	=21	=21	=21	=21	=21	=21	=21	=21	=21	=21	=21	=21	=21	=21	=21	=21	=21	=21	=21	=21	=21	=21	=21
*	*	*	*	*	*	*	*	*	*	*	*	*	*	*	*	*	*	*	*^	*	*	*	*	*	*	*	*	*	*	*
!	!	!	!	!	!	!	!	!	!	!	!	!	!	!	!	!	!	!LO:DY:a	!	!	!	!	!	!	!	!	!	!	!	!	!
4c# 4C#^\	4.ggg# 4.eee 4.gg#^\	.	4.A\	.	4.g#\	bra-	-pa-	.	(4c#\	.	.	.	(4c#\	nie-	-nor-	.	2a/	ff	(4.gg# (4.ee\	4.ryy	On	Del-	ff	1r	.	.	.	4.e\	bra-	-pa-	.
4d 4D^\	.	.	.	.	.	.	.	.	4d\)	.	.	.	4d\)	.	-ri-	.	.	.	.	.	.	.	.	.	.	.	.	.	.	.	.
.	8fff# 8ddd 8ff#\	.	8d\	.	8f#\	-cia	-gni	.	.	.	.	.	.	.	.	.	.	.	8ff# 8dd\))	8ryy	.	.	.	.	.	.	.	8d\	-cia	-gni!	.
4A 4AA^\	4eee 4ccc# 4ee/	.	4c#\	.	4e\	spiesz-	in	.	4A\	.	.	.	4A/	-ba	-di-	.	4a/	.	4ee 4cc#\	4ryy	ci	-l'a-	.	.	.	.	.	4c#\	śpiesz-	in	.
4F# 4FF#^/	4aaa 4fff# 4ccc# 4aa^\	.	4c#\	.	4f#\	-my	suo_o-	.	4A\	.	.	.	4f#\	strasz-	-to_il	.	4a/	.	4ee/	4ee\	od-	-mo-	.	.	.	.	.	4d\	-my	suo_o-	.
*	*	*	*	*	*	*	*	*	*	*	*	*	*	*	*	*	*	*	*v	*v	*	*	*	*	*	*	*	*	*	*	*
=22	=22	=22	=22	=22	=22	=22	=22	=22	=22	=22	=22	=22	=22	=22	=22	=22	=22	=22	=22	=22	=22	=22	=22	=22	=22	=22	=22	=22	=22	=22
4c# 4C#^\	4.ggg# 4.eee 4.gg#^\	.	4.A\	.	4.g#\	stos	-nor,	.	2A\	.	.	.	(4c#\	-li-	cie-	.	2a/	.	(4.gg# (4.ee\	-da-	-ro-	.	1r	.	.	.	4.e\	stos	-nor,	.
4d 4D^\	.	.	.	.	.	.	.	.	.	.	.	.	4d\)	.	.	.	.	.	.	.	.	.	.	.	.	.	.	.	.	.
.	8fff# 8ddd 8ff#\	.	8A\	.	8f#\	mu	in	.	.	.	.	.	.	.	.	.	.	.	8ff# 8dd\))	.	.	.	.	.	.	.	8d\	mu	in	.
4A 4AA^\	4eee 4ccc# 4ee/	.	4A\	.	4e\	wznieść,	suo	.	4A\	.	.	.	4A/	-wy	-lo,	.	4a/	.	4ee 4cc#\	-je	-sa,	.	.	.	.	.	4c#\	wznieść,	suo	.
4B 4BB^\	4ddd#X 4bb 4dd#X/	.	4A\	.	4f#\	tak	o-	.	4B\	.	.	.	4B\	Zwia-	de'	.	4a/	.	4dd#X\	No-	del-	.	.	.	.	.	4f#\	tak	o-	.
=23	=23	=23	=23	=23	=23	=23	=23	=23	=23	=23	=23	=23	=23	=23	=23	=23	=23	=23	=23	=23	=23	=23	=23	=23	=23	=23	=23	=23	=23	=23
4G# 4GG#^/	4dddn 4bb 4ffn 4ddn/	.	4d\	.	4fn\	spiesz-	-nor	.	4G#\	.	.	.	4G#/	-sto-	fal-	.	4b\	.	4ddn\	-we-	-l'a-	.	1r	.	.	.	4fn\	spiesz-	-nor	.
4A 4AA^\	4ccc# 4aa 4ee 4cc#/	.	4c#\	.	4e\	-my	il	.	4A\	.	.	.	4A/	-wał	-li	.	4a/	.	4cc#\	-go	-mo-	.	.	.	.	.	4e\	-my	il	.
4B 4BB^\	4gg# 4ee 4dd 4g#/	.	4B\	.	4e\	stos	ro-	.	4B\	.	.	.	4d\	nam	suoi	.	4g#/	.	4g#/	ży-	-ro-	.	.	.	.	.	4e\	stos	ro-	.
!	!	!	!	!	!	!	!	!	!	!	!	!	!	!	!	!	!	!	!	!	!	!	!	!	!	!	!LO:TX:a:i:t=(scorgendo il corpo di Idamor)	!	!	!
!	!	!	!	!	!	!	!	!	!	!	!	!	!	!	!	!	!	!	!	!	!	!	!	!	!	!	!LO:TX:a:t=(spostrzegając ciało Idamora)	!	!	!
4c# 4C#^\	4aa 4ee 4a/	.	4A\	.	4e\	mu	-go_il	.	4A\	.	.	.	4c#\	o-	al-	.	4a/	.	4a/	-cia	-sa	.	.	.	.	.	4e\	mu	-go_il	.
=24	=24	=24	=24	=24	=24	=24	=24	=24	=24	=24	=24	=24	=24	=24	=24	=24	=24	=24	=24	=24	=24	=24	=24	=24	=24	=24	=24	=24	=24	=24
*	*	*	*	*	*	*	*	*	*	*	*	*	*	*	*	*	*	*	*^	*	*	*	*	*	*	*	*	*	*	*
8.DL 8.DD^\	2fff# 2bb 2aa 2ff#X^/	.	2B\	.	2f#X\	wznieść,	ro-	.	4.D\	.	.	.	4.d\	-stat-	-fin	.	2b\	.	2b/	2b\	kwiat	fè.	.	1r	.	.	.	2f#X\	wnieść,	ro-	.
16bJk 16B\	.	.	.	.	.	.	.	.	.	.	.	.	.	.	.	.	.	.	.	.	.	.	.	.	.	.	.	.	.	.	.
4b 4B\	.	.	.	.	.	.	.	.	.	.	.	.	.	.	.	.	.	.	.	.	.	.	.	.	.	.	.	.	.	.	.
.	.	.	.	.	.	.	.	.	8D\	.	.	.	8d\	-ni	lo	.	.	.	.	.	.	.	.	.	.	.	.	.	.	.	.
8.EL 8.EE^\	2eee 2bb 2gg# 2ee^/	.	2E\	.	2e\	stos	-go_er	.	4.E\	.	.	.	4.e\	je-	con-	.	4r	.	4r	4.ryy	.	.	.	.	.	.	.	2e\	stos	-go_er	.
16eJk 16E\	.	.	.	.	.	.	.	.	.	.	.	.	.	.	.	.	.	.	.	.	.	.	.	.	.	.	.	.	.	.	.
4e 4E\	.	.	.	.	.	.	.	.	.	.	.	.	.	.	.	.	8r	.	8r	.	.	.	.	.	.	.	.	.	.	.	.
.	.	.	.	.	.	.	.	.	8E\	.	.	.	8e\	-go	-dan	.	8e/	.	8ee\	8ryy	O	O	.	.	.	.	.	.	.	.	.
*	*X8va	*	*	*	*	*	*	*	*	*	*	*	*	*	*	*	*	*	*	*	*	*	*	*	*	*	*	*	*	*	*
*	*	*	*	*	*	*	*	*	*	*	*	*	*	*	*	*	*	*	*v	*v	*	*	*	*	*	*	*	*	*	*	*
==	==	==	==	==	==	==	==	==	==	==	==	==	==	==	==	==	==	==	==	==	==	==	==	==	==	==	==	==	==	==
*-	*-	*-	*-	*-	*-	*-	*-	*-	*-	*-	*-	*-	*-	*-	*-	*-	*-	*-	*-	*-	*-	*-	*-	*-	*-	*-	*-	*-	*-	*-
!!!system-decoration: <s1,s2>[(s3,s4)][(s5,s6)][(s7,s8)]{(klav)}
!!!RDF**kern: > = above
!!!RDF**kern: < = below
!!!ENC: Berenika Jozajtis
!!!END: 2022-09-05
!!!ENC: Andrzej Kubiczek
!!!END: 2022-10-17
